X:22
T:Untitled
M:3/2
L:1/8
Q:1/2=100
S:D.Wright, Extraordinary Collection, London 1713
Z:Pete Stewart, 2004 <www.hornpipemusic.co.uk>
K:D
"6/4 in book"D2d4cB AGFE | efge fgaf c2A2 | D2d2edcB FAdF | efge fgaf d2D2 ||
F2D2A2E2C2A,2 | DEFD CDEB, C2A,2 | DEFG A2d2F2A2 | BAGF EFGE F2D2 ||
f2ef gfed cdec | Bede Bede c2A2 | d2A2B2G2A2F2 | f2ef gf ec d2D2 |]

